other/wrotto.svg

<svg width="48" height="48" version="1.1" viewBox="0 0 48 48" xmlns="http://www.w3.org/2000/svg">
 <defs>
  <style>.a{fill:none;stroke:#fff;stroke-linecap:round;stroke-linejoin:round;}</style>
  <style>.cls-1{fill:none;stroke:#fff;stroke-linecap:round;stroke-linejoin:round;}</style>
  <style>.a{fill:none;stroke:#fff;stroke-linecap:round;stroke-linejoin:round;}</style>
 </defs>
 <g>
  <path class="a" d="m6.0526 6.4362v35.06a1.9954 2.0034 0 0 0 1.9954 2.0034h2.3247v-39.066h-2.3247a1.9954 2.0034 0 0 0-1.9954 2.0034z"/>
  <path class="a" d="m14.603 4.45-4.2302-0.01724m0 39.066h13.134m9.6613 0h2.0186c1.1021 0 1.9954-0.89695 1.9954-2.0034v-5.2824m-5.5883-31.776-9.2503 0.012417"/>
  <path class="cls-1" d="m14.603 4.45v8.82l3.86-3.91 3.88 3.91v-8.82"/>
  <path class="a" d="m27.121 44.486-2.8634-5.2884 7.0527-23.907 8.0118 2.4296-7.0625 23.954z"/>
  <path class="a" d="m36.434 5.3107a2.1101 2.099 90 0 0-2.6014 1.4234l-1.3581 4.6057 8.0291 2.3708 1.358-4.6057a2.097 2.086 90 0 0-1.4124-2.6086z"/>
 </g>
</svg>

<svg xmlns="http://www.w3.org/2000/svg" viewBox="0 0 48 48"><defs><style>.a{fill:none;stroke:#fff;stroke-linecap:round;stroke-linejoin:round;}</style></defs><path class="a" d="M6.0526,6.4362v35.06A2,2,0,0,0,8.048,43.5h2.3247V4.4336H8.048A2,2,0,0,0,6.0526,6.437Z"/><path class="a" d="M14.603,4.45l-4.23-.0172m0,39.066h13.134m9.6613,0h2.0186a1.9994,1.9994,0,0,0,1.9954-2.0034V36.213M31.5938,4.437l-9.25.0124"/><path class="a" d="M14.603,4.45v8.82l3.86-3.91,3.88,3.91V4.45"/><path class="a" d="M27.121,44.486l-2.8634-5.2884L31.31,15.2906l8.0118,2.43L32.26,41.6742Z"/><path class="a" d="M36.434,5.3107a2.0973,2.0973,0,0,0-2.6014,1.4234L32.4745,11.34l8.0291,2.3708,1.358-4.6057a2.0987,2.0987,0,0,0-1.4065-2.6068l-.0059-.0018Z"/></svg>
